src/Pure/16/symbolic/actions/selection-lower-symbolic.svg

<?xml version="1.0" encoding="UTF-8" standalone="no"?>
<svg
   width="16"
   height="16"
   version="1.1"
   id="svg2"
   sodipodi:docname="selection-lower-symbolic.svg"
   inkscape:version="1.4.2 (ebf0e940d0, 2025-05-08)"
   xmlns:inkscape="http://www.inkscape.org/namespaces/inkscape"
   xmlns:sodipodi="http://sodipodi.sourceforge.net/DTD/sodipodi-0.dtd"
   xmlns="http://www.w3.org/2000/svg"
   xmlns:svg="http://www.w3.org/2000/svg">
  <defs
     id="defs2">
    <style
       id="current-color-scheme"
       type="text/css">
        .ColorScheme-Text { color:#363636; }
        .ColorScheme-NegativeText { color:#da4453; }
     </style>
  </defs>
  <sodipodi:namedview
     id="namedview2"
     pagecolor="#ffffff"
     bordercolor="#000000"
     borderopacity="0.25"
     inkscape:showpageshadow="2"
     inkscape:pageopacity="0.0"
     inkscape:pagecheckerboard="0"
     inkscape:deskcolor="#d1d1d1"
     inkscape:zoom="49.6875"
     inkscape:cx="8.4427673"
     inkscape:cy="8"
     inkscape:window-width="1920"
     inkscape:window-height="1010"
     inkscape:window-x="0"
     inkscape:window-y="0"
     inkscape:window-maximized="1"
     inkscape:current-layer="svg2" />
  <path
     id="path1"
     style="opacity:0.35;fill:currentColor"
     class="ColorScheme-Text"
     d="M 7 3 L 7 4 L 14 4 L 14 3 L 7 3 z M 9 5 L 9 6 L 14 6 L 14 5 L 9 5 z M 8 7 L 8 8 L 14 8 L 14 7 L 8 7 z M 9 9 L 9 10 L 14 10 L 14 9 L 9 9 z M 8 13 L 8 14 L 14 14 L 14 13 L 8 13 z " />
  <path
     id="path2"
     style="fill:currentColor"
     class="ColorScheme-Text"
     d="M 4 2 L 4 8.0292969 L 2.65625 6.5917969 L 2 7.2792969 L 4.3125 9.7792969 L 4.5019531 9.9980469 L 4.6894531 9.7792969 L 7.0019531 7.2792969 L 6.3457031 6.5917969 L 5.0019531 8.0292969 L 5.0019531 2 L 4 2 z M 2 11 L 2 12 L 14 12 L 14 11 L 2 11 z " />
</svg>

<svg width="16" height="16" version="1.1" xmlns="http://www.w3.org/2000/svg">
 <path class="ColorScheme-Text" d="m7 3v1h7v-1zm2 2v1h5v-1zm-1 2v1h6v-1zm1 2v1h5v-1zm-1 4v1h6v-1z" color="#363636" fill="currentColor" opacity=".35"/>
 <path class="ColorScheme-Text" d="m4 2v6.0312l-1.3438-1.4375-0.65625 0.6875 2.3125 2.5 0.1875 0.21875 0.1875-0.21875 2.3125-2.5-0.65625-0.6875-1.3438 1.4375v-6.0312zm-2 9v1h12v-1z" color="#363636" fill="currentColor"/>
</svg>
